**kern	**kern	**dynam
*part1	*part1	*part1
*staff2	*staff1	*
*I"Piano	*	*
*clefF4	*clefG2	*
*k[b-e-a-]	*k[b-e-a-]	*
=1	=1	=1
4GG 4G	4Bn 4d 4g	.
8GGL 8G	8BL 8d 8g	.
8GGJ 8G	8cJ 8en 8g	.
=	=	=
4GG 4G	4Bn 4d 4g	.
8GGL 8G	8BL 8d 8g	.
8GGJ 8G	8BJ 8d 8g	.
=	=	=
4GG 4G	4Bn 4d 4g	.
8GGL 8G	8BL 8d 8g	.
8GGJ 8G	8cJ 8en 8g	.
=	=	=
4GG 4G	4Bn 4d 4g	.
8GGL 8G	8BL 8d 8g	.
8GGJ 8G	8BJ 8d 8g	.
=	=	=
4GG 4G	4Bn 4d 4g	<
8GGL 8G	8BL 8d 8g	.
8GGJ 8E-X 8G	8B-XJ 8e-X 8g	.
=	=	=
4GG 4E- 4G	4B- 4e- 4g	[ fp >
8BB-L 8E- 8G	8B-L 8e- 8g	.
8BB-J 8E- 8G	8B-J 8e- 8g	.
=	=	=
4BB- 4E- 4G	4B- 4e- 4g	]
8BB-L 8E- 8G	8B-L 8e- 8g	.
8BB-J 8E- 8G	8B-J 8e- 8g	.
=	=	=
*-	*-	*-
!!!system-decoration: {(s1,s2)}
